svg/color/dama.svg

<?xml version="1.0" encoding="UTF-8" ?>
<!DOCTYPE svg PUBLIC "-//W3C//DTD SVG 1.1//EN" "http://www.w3.org/Graphics/SVG/1.1/DTD/svg11.dtd">
<svg width="250pt" height="250pt" viewBox="0 0 250 250" version="1.1" xmlns="http://www.w3.org/2000/svg">
<g id="#fafafaff">
<path fill="#fafafa" opacity="1.00" d=" M 0.00 0.00 L 250.00 0.00 L 250.00 250.00 L 0.00 250.00 L 0.00 0.00 M 111.57 39.89 C 84.92 44.03 60.78 61.38 48.52 85.41 C 39.69 102.39 36.71 122.33 40.38 141.11 C 44.34 162.43 56.79 182.03 74.39 194.71 C 97.52 211.79 129.40 215.99 156.13 205.34 C 177.92 197.00 195.90 179.36 204.68 157.74 C 213.32 136.96 213.29 112.83 204.58 92.07 C 196.27 71.84 179.93 55.08 159.90 46.28 C 144.83 39.51 127.84 37.50 111.57 39.89 Z" />
</g>
<g id="#ff1464ff">
<path fill="#ff1464" opacity="1.00" d=" M 111.57 39.89 C 127.84 37.50 144.83 39.51 159.90 46.28 C 179.93 55.08 196.27 71.84 204.58 92.07 C 213.29 112.83 213.32 136.96 204.68 157.74 C 195.90 179.36 177.92 197.00 156.13 205.34 C 129.40 215.99 97.52 211.79 74.39 194.71 C 56.79 182.03 44.34 162.43 40.38 141.11 C 36.71 122.33 39.69 102.39 48.52 85.41 C 60.78 61.38 84.92 44.03 111.57 39.89 M 80.33 99.22 C 80.34 116.42 80.32 133.63 80.34 150.83 C 95.20 159.49 110.11 168.04 125.00 176.64 C 139.89 168.05 154.79 159.48 169.65 150.85 C 169.67 133.61 169.71 116.37 169.63 99.14 C 154.74 90.56 139.87 81.98 125.00 73.38 C 110.13 82.02 95.18 90.53 80.33 99.22 Z" />
</g>
<g id="#6f03feff">
<path fill="#6f03fe" opacity="1.00" d=" M 80.33 99.22 C 95.18 90.53 110.13 82.02 125.00 73.38 C 139.87 81.98 154.74 90.56 169.63 99.14 C 169.71 116.37 169.67 133.61 169.65 150.85 C 154.79 159.48 139.89 168.05 125.00 176.64 C 110.11 168.04 95.20 159.49 80.34 150.83 C 80.32 133.63 80.34 116.42 80.33 99.22 Z" />
</g>
</svg>

<?xml version="1.0" encoding="utf-8"?>
<!-- Generator: Adobe Illustrator 26.0.3, SVG Export Plug-In . SVG Version: 6.00 Build 0)  -->
<svg version="1.1" id="Layer_1" xmlns="http://www.w3.org/2000/svg" xmlns:xlink="http://www.w3.org/1999/xlink" x="0px" y="0px"
	 viewBox="0 0 250 250" style="enable-background:new 0 0 250 250;" xml:space="preserve">
<style type="text/css">
	.st0{fill:#FF1464;}
	.st1{fill:#6F03FE;}
</style>
<g id="_x23_ff1464ff">
	<path class="st0" d="M111.6,39.9c16.3-2.4,33.3-0.4,48.3,6.4c20,8.8,36.4,25.6,44.7,45.8c8.7,20.8,8.7,44.9,0.1,65.7
		c-8.8,21.6-26.8,39.3-48.5,47.6c-26.7,10.7-58.6,6.4-81.7-10.6c-17.6-12.7-30-32.3-34-53.6c-3.7-18.8-0.7-38.7,8.1-55.7
		C60.8,61.4,84.9,44,111.6,39.9 M80.3,99.2c0,17.2,0,34.4,0,51.6c14.9,8.7,29.8,17.2,44.7,25.8c14.9-8.6,29.8-17.2,44.6-25.8
		c0-17.2,0.1-34.5,0-51.7C154.7,90.6,139.9,82,125,73.4C110.1,82,95.2,90.5,80.3,99.2z"/>
</g>
<g id="_x23_6f03feff">
	<path class="st1" d="M80.3,99.2C95.2,90.5,110.1,82,125,73.4c14.9,8.6,29.7,17.2,44.6,25.8c0.1,17.2,0,34.5,0,51.7
		c-14.9,8.6-29.8,17.2-44.6,25.8c-14.9-8.6-29.8-17.1-44.7-25.8C80.3,133.6,80.3,116.4,80.3,99.2z"/>
</g>
</svg>
